X: 1
T: Bonny Bunch Of Ferns
M: 4/4
L: 1/8
R: reel
K: Gmaj
B2dB c2Ac | BGGB d3c | B2dB c2Ac | dBcA BGGA |
 B2dB c2Ac | BGGB d3c|B2dB c2Ac |1 dBcA BGGA :|2 dBcA BGGg || 
fgaf gefd | cAAB c3g | fgaf gbag |fdcA BGGg |
fgaf gefd | cAAB c3g | fgaf gbag | fdcA BGG2 :|
